icons/round/editor/ic_border_vertical_24px.svg

<svg xmlns="http://www.w3.org/2000/svg" height="24" viewBox="0 0 24 24" width="24"><path d="M0 0h24v24H0V0z" fill="none"/><path d="M3 9h2V7H3v2zm0-4h2V3H3v2zm4 16h2v-2H7v2zm0-8h2v-2H7v2zm-4 0h2v-2H3v2zm0 8h2v-2H3v2zm0-4h2v-2H3v2zM7 5h2V3H7v2zm12 12h2v-2h-2v2zm-7 4c.55 0 1-.45 1-1V4c0-.55-.45-1-1-1s-1 .45-1 1v16c0 .55.45 1 1 1zm7 0h2v-2h-2v2zm0-8h2v-2h-2v2zm0-10v2h2V3h-2zm0 6h2V7h-2v2zm-4-4h2V3h-2v2zm0 16h2v-2h-2v2zm0-8h2v-2h-2v2z"/></svg>

<svg xmlns="http://www.w3.org/2000/svg" enable-background="new 0 0 24 24" height="24" viewBox="0 0 24 24" width="24"><g><rect fill="none" height="24" width="24"/></g><g><g><g><path d="M3,9h2V7H3V9z M3,5h2V3H3V5z M7,21h2v-2H7V21z M7,13h2v-2H7V13z M3,13h2v-2H3V13z M3,21h2v-2H3V21z M3,17h2v-2H3V17z M7,5h2V3H7V5z M19,17h2v-2h-2V17z M12,21L12,21c0.55,0,1-0.45,1-1V4c0-0.55-0.45-1-1-1l0,0c-0.55,0-1,0.45-1,1v16 C11,20.55,11.45,21,12,21z M19,21h2v-2h-2V21z M19,13h2v-2h-2V13z M19,3v2h2V3H19z M19,9h2V7h-2V9z M15,5h2V3h-2V5z M15,21h2v-2 h-2V21z M15,13h2v-2h-2V13z"/></g></g></g></svg>
